X:1091
T:Get Up Old Woman And Shake Yourself
R:double jig
N:"collected by F.O'Neill"
B:O'Neill's 1091
Z:Transcribed by henrik.norbeck@mailbox.swipnet.se
M:6/8
L:1/8
K:C
E/F/|G2B cBAB|G2E E2G|F2A BAFA|F2D DEF|
G2B cBAB|def agfe|dcB cBAB|G2E E2:|
B/c/|d2B cBAB|d2B ABc|d2B cBAB|G2E E2B/c/|
d2B cBAB|def agfe|dcB cBAB|G2E E2:|
